src/actions/22/document-edit-decrypt.svg

<svg version="1.1" viewBox="0 0 22 22" xmlns="http://www.w3.org/2000/svg">
 <defs>
  <style id="current-color-scheme" type="text/css">.ColorScheme-Text {
        color:#363636;
      }</style>
 </defs>
 <path class="ColorScheme-Text" d="m4 2.998v2.002h2v-2h2v2h2v-2h2v2h2v-2h2v2h2v-2.002h-14m2 3.002v2h2v-2h-2m4 0v2h2v-2h-2m4 0v2h2v-2h-2m-10 3v2h14v-2h-2v2h1-12 1v-2h-2m4 0v2h2v-2h-2m4 0v2h2v-2h-2" fill="currentColor"/>
 <path class="ColorScheme-Text" d="m4 11v5c0 1.662 1.338 3 3 3h5 1l5-5v-3h-1v2h-5v5h-5c-1.108 0-2-0.892-2-2v-5h-1zm9 3h3.5859l-3.5859 3.5859v-3.5859z" fill="currentColor"/>
</svg>

<svg xmlns="http://www.w3.org/2000/svg" viewBox="0 0 22 22">
    <defs>
        <style id="current-color-scheme" type="text/css">
            .ColorScheme-Text{color:#050505;opacity:.7}
        </style>
    </defs>
    <path fill="currentColor" d="M4 2.998V5h2V3h2v2h2V3h2v2h2V3h2v2h2V2.998H4M6 6v2h2V6H6m4 0v2h2V6h-2m4 0v2h2V6h-2M4 9v2h14V9h-2v2h1H5h1V9H4m4 0v2h2V9H8m4 0v2h2V9h-2M4 11v5c0 1.662 1.338 3 3 3h6l5-5v-3h-1v2h-5v5H7c-1.108 0-2-.892-2-2v-5H4zm9 3h3.586L13 17.586V14z" class="ColorScheme-Text"/>
</svg>
